Origami/64x64/apps/litecoin-qt.svg

<svg width="64" height="64" version="1.1" viewBox="0 0 64 64" xmlns="http://www.w3.org/2000/svg">
 <path d="M 4.043,31.828 A 28,28 0 0 0 4,33 28,28 0 0 0 32,61 28,28 0 0 0 60,33 28,28 0 0 0 59.958,32.172 28,28 0 0 1 32,59 28,28 0 0 1 4.044,31.828 Z" style="opacity:.2"/>
 <path d="M 32,4 A 28,28 0 0 0 4,32 28,28 0 0 0 32,60 28,28 0 0 0 60,32 28,28 0 0 0 32,4 Z" style="fill:#4f4f4f"/>
 <path d="m32 12a21 21 0 0 1 21 21 21 21 0 0 1 -21 21 21 21 0 0 1 -21 -21 21 21 0 0 1 21 -21z" style="opacity:.2"/>
 <path d="m32 11a21 21 0 0 1 21 21 21 21 0 0 1 -21 21 21 21 0 0 1 -21 -21 21 21 0 0 1 21 -21z" style="fill:#ffffff"/>
 <path d="M 27,16 23.083984,27.919922 20,29 18,37 20.808594,36.017578 18,44 h 12 14 l 2,-7 H 32.53125 L 34.117188,31.359374 38,30 40,22 36.39453,23.26172 39,16 Z" style="fill:#4f4f4f"/>
 <path d="M 32 4 A 28 28 0 0 0 4 32 A 28 28 0 0 0 4.0214844 32.40625 A 28 28 0 0 1 32 5 A 28 28 0 0 1 59.978516 32.578125 A 28 28 0 0 0 60 32 A 28 28 0 0 0 32 4 z" style="fill:#ffffff;opacity:.1"/>
</svg>

<svg xmlns="http://www.w3.org/2000/svg" width="64" height="64" version="1.1" viewBox="0 0 64 64">
 <path style="opacity:0.2" d="M 4.043,31.828 A 28,28 0 0 0 4,33 28,28 0 0 0 32,61 28,28 0 0 0 60,33 28,28 0 0 0 59.958,32.172 28,28 0 0 1 32,59 28,28 0 0 1 4.044,31.828 Z"/>
 <path style="fill:#4f4f4f" d="M 32,4 A 28,28 0 0 0 4,32 28,28 0 0 0 32,60 28,28 0 0 0 60,32 28,28 0 0 0 32,4 Z"/>
 <path style="opacity:0.2" d="M 32,12 A 21,21 0 0 1 53,33 21,21 0 0 1 32,54 21,21 0 0 1 11,33 21,21 0 0 1 32,12 Z"/>
 <path style="fill:#ffffff" d="M 32,11 A 21,21 0 0 1 53,32 21,21 0 0 1 32,53 21,21 0 0 1 11,32 21,21 0 0 1 32,11 Z"/>
 <path style="fill:#4f4f4f" d="M 27,16 23.083984,27.919922 20,29 18,37 20.808594,36.017578 18,44 h 12 14 l 2,-7 H 32.53125 L 34.117188,31.359374 38,30 40,22 36.39453,23.26172 39,16 Z"/>
 <path style="opacity:0.1;fill:#ffffff" d="M 32 4 A 28 28 0 0 0 4 32 A 28 28 0 0 0 4.0214844 32.40625 A 28 28 0 0 1 32 5 A 28 28 0 0 1 59.978516 32.578125 A 28 28 0 0 0 60 32 A 28 28 0 0 0 32 4 z"/>
</svg>
